X:2529
T:Linhope Loup
C:anon.
O:England
S:Northumbrian
Z:C.G.P
F:http://abc.musicaviva.com/tunes/england/linhope-loup/linhope-loup.abc
%Posted at abcusers Jan 2nd 2001 by Johnny Adams.
M:4/4
L:1/8
Q:1/4=200
K:D
|:FG|A2f2G2eG|F2d2 dAFA|G2E2 EFGA|B2AB AGFG|
A2f2G2eG|F2d2dAFA|GFEF GABc|d2f2d2:|
|:fg|a2A2 ABA2|g2B2B2cB|ABcd ecBA|dcde fefg|
a2A2ABA2|g2B2B2cB|cdcB Agfe|d2f2d2:|
W:
W:
W:  From Musica Viva - http://www.musicaviva.com
W:  the Internet center for free sheet music downloads.
